X:339
%%etbk:tnset id:102,pos:1,rep:3x,ant:
%%etbk:tnset id:496,pos:1,rep:3x,ant:
%%etbk:tnset id:499,pos:3,rep:3x,ant:
%%etbk:wsite http://www.thesession.org/tunes/display/414
%%etbk:color #ffffcc
%%etbk:pldat 2016-06-22T15:12,2016-06-18T16:35,2016-05-04T16:21,2016-05-03T16:09,2016-03-24T15:50,2016-03-21T18:10,2016-03-20T14:05,2016-03-16T15:35,2016-03-10T18:01,2016-03-09T15:16,2016-03-07T18:07,2015-12-11T18:15,2015-12-10T18:56,2015-12-10T18:08,2015-12-09T15:47,2015-12-08T15:17,2015-12-07T18:36,2015-12-06T14:07,2015-12-03T18:13,2015-12-02T15:13,2015-12-01T15:14,2015-11-04T16:33,2015-10-29T18:28,2015-10-27T15:20,2015-10-24T12:58,2015-10-15T19:17,2015-06-23T19:01,2015-03-12T18:22,2015-03-09T18:03,2015-03-03T18:26,2014-11-05T18:32,2014-11-04T15:21,2014-11-02T13:23,2014-08-20T18:39,2014-06-25T15:20,2014-03-06T18:49,2014-03-05T18:22,2014-03-01T16:45,2014-02-25T18:13,2014-02-18T16:40,2013-10-30T16:15,2013-10-28T18:34,2013-10-24T18:43,2013-10-16T16:25,2013-10-15T18:25,2013-10-13T15:50,2013-10-09T16:52
T: Seamus Cooley's
Z: Piano Box Version by Martin Fleischmann
H: Created 2013-02-19 /  Last Modified 2016-03-16
M: 6/8
L: 1/8
R: jig
K: Gmaj
|: "G"!5!BAB !3!GG!2!E | !1!D!2!D!1!D !1!D!2!E!3!G | "D"!3!GAB !4!A!3!G!2!E | !4!ABA AGA |
"G"!5!BAB !3!GG!2!E | !1!D!2!B,!1!D !1!D!2!E!3!G | "D"!3!GAB !4!A!3!G!2!E | "G"!3!G3 G2!4!A:|
|: "G"!3!BAB !5!ddB | !3!BAB !5!d2B | "D"!2!A2!4!A !4!A!3!G!2!E | !4!ABA AGA |
|1 "G"!3!BAB !5!ddB | !3!BAB !5!d2B | "D"!1!GAB !2!A!1!G!2!E | "G"!1!G3 G2!2!A:|
|2 "G"!5!BAB !3!GG!2!E | !1!D!2!D!1!D !1!D!2!E!3!G | "D"!3!GAB !4!A!3!G!2!E | "G"!3!G3 G2!4!A||


